assets/icons/24px/outline/circlewith-blocks-24px.svg

<svg fill="none" height="24" viewBox="0 0 24 24" width="24" xmlns="http://www.w3.org/2000/svg"><g stroke="#fff" stroke-width="2"><rect height="6" rx="2" width="6" x="3" y="3"/><rect height="6" rx="2" width="6" x="3" y="15"/><rect height="6" rx="2" width="6" x="15" y="15"/><path d="m3.93552 8c-.59881 1.20496-.93552 2.5632-.93552 4s.33671 2.795.93552 4m4.06448-12.06448c1.20496-.59881 2.5632-.93552 4-.93552s2.795.33671 4 .93552m4.0645 4.06448c.5988 1.20496.9355 2.5632.9355 4s-.3367 2.795-.9355 4m-4.0645 4.0645c-1.205.5988-2.5632.9355-4 .9355s-2.79504-.3367-4-.9355"/><rect height="6" rx="2" width="6" x="15" y="3"/></g></svg>

<svg width="24" height="24" viewBox="0 0 24 24" fill="none" xmlns="http://www.w3.org/2000/svg">
<rect x="3" y="3" width="6" height="6" rx="2" stroke="white" stroke-width="2"/>
<rect x="3" y="15" width="6" height="6" rx="2" stroke="white" stroke-width="2"/>
<rect x="15" y="15" width="6" height="6" rx="2" stroke="white" stroke-width="2"/>
<path d="M3.93552 8C3.33671 9.20496 3 10.5632 3 12C3 13.4368 3.33671 14.795 3.93552 16M8 3.93552C9.20496 3.33671 10.5632 3 12 3C13.4368 3 14.795 3.33671 16 3.93552M20.0645 8C20.6633 9.20496 21 10.5632 21 12C21 13.4368 20.6633 14.795 20.0645 16M16 20.0645C14.795 20.6633 13.4368 21 12 21C10.5632 21 9.20496 20.6633 8 20.0645" stroke="white" stroke-width="2"/>
<rect x="15" y="3" width="6" height="6" rx="2" stroke="white" stroke-width="2"/>
</svg>
